icons/svg/craft/hvac.svg

<?xml version="1.0" encoding="UTF-8" standalone="no"?>
<!-- Created with Inkscape (http://www.inkscape.org/) -->

<svg
   xmlns:dc="http://purl.org/dc/elements/1.1/"
   xmlns:cc="http://creativecommons.org/ns#"
   xmlns:rdf="http://www.w3.org/1999/02/22-rdf-syntax-ns#"
   xmlns:svg="http://www.w3.org/2000/svg"
   xmlns="http://www.w3.org/2000/svg"
   xmlns:sodipodi="http://sodipodi.sourceforge.net/DTD/sodipodi-0.dtd"
   xmlns:inkscape="http://www.inkscape.org/namespaces/inkscape"
   version="1.0"
   width="580"
   height="580"
   id="svg2"
   sodipodi:version="0.32"
   inkscape:version="0.91 r"
   sodipodi:docname="hvac.svg"
   inkscape:output_extension="org.inkscape.output.svg.inkscape">
  <metadata
     id="metadata2975">
    <rdf:RDF>
      <cc:Work
         rdf:about="">
        <dc:format>image/svg+xml</dc:format>
        <dc:type
           rdf:resource="http://purl.org/dc/dcmitype/StillImage" />
        <cc:license
           rdf:resource="http://web.resource.org/cc/PublicDomain" />
        <dc:language>en</dc:language>
      </cc:Work>
    </rdf:RDF>
  </metadata>
  <sodipodi:namedview
     inkscape:window-height="739"
     inkscape:window-width="1332"
     inkscape:pageshadow="2"
     inkscape:pageopacity="0.0"
     guidetolerance="10.0"
     gridtolerance="10.0"
     objecttolerance="10.0"
     borderopacity="1.0"
     bordercolor="#666666"
     pagecolor="#ffffff"
     id="base"
     inkscape:zoom="0.32586207"
     inkscape:cx="29.938119"
     inkscape:cy="233.47375"
     inkscape:window-x="34"
     inkscape:window-y="1024"
     inkscape:current-layer="svg2"
     showgrid="false"
     inkscape:window-maximized="1" />
  <defs
     id="defs4">
    <inkscape:perspective
       sodipodi:type="inkscape:persp3d"
       inkscape:vp_x="0 : 290 : 1"
       inkscape:vp_y="0 : 1000 : 0"
       inkscape:vp_z="580 : 290 : 1"
       inkscape:persp3d-origin="290 : 193.33333 : 1"
       id="perspective2441" />
    <inkscape:perspective
       id="perspective3452"
       inkscape:persp3d-origin="30 : 20 : 1"
       inkscape:vp_z="60 : 30 : 1"
       inkscape:vp_y="0 : 1000 : 0"
       inkscape:vp_x="0 : 30 : 1"
       sodipodi:type="inkscape:persp3d" />
  </defs>
  <g
     id="g1327">
    <path
       d="M 66.275,1.768 C 24.94,1.768 1.704,23.139 1.704,66.804 L 1.704,516.927 C 1.704,557.771 22.599,579.156 63.896,579.156 L 515.92,579.156 C 557.227,579.156 578.149,558.841 578.149,516.927 L 578.149,66.804 C 578.149,24.203 557.227,1.768 514.628,1.768 C 514.624,1.768 66.133,1.625 66.275,1.768 z "
       style="fill:#111;stroke:#eee;stroke-width:3.40799999"
       id="path1329" />
  </g>
  <path
     style="fill:#ffffff"
     inkscape:connector-curvature="0"
     d="m 312.88475,172.04643 c 0,-5.444 -4.424,-9.867 -9.867,-9.867 l -33.619,0 17.529,-24.608 c 1.24,-1.735 1.832,-3.732 1.832,-5.714 0,-3.09 -1.441,-6.12 -4.145,-8.05 -4.441,-3.162 -10.6,-2.125 -13.762,2.313 l -25.689,36.06 -53.912,0 27.473,-46.498 44.117,-3.777 c 5.148,-0.436 9.027,-4.746 9.027,-9.814 0,-0.286 -0.008,-0.567 -0.039,-0.85601 -0.457,-5.429001 -5.24,-9.454001 -10.669,-8.985001 l -30.113,2.572 17.115,-28.949 c 0.93,-1.581 1.373,-3.304 1.373,-5.012 0,-3.375 -1.738,-6.661 -4.852,-8.497 -4.689,-2.778 -10.738,-1.224 -13.508,3.469 l -17.104,28.952 -12.273,-27.624 c -2.219,-4.975 -8.055,-7.22 -13.029,-5.009 -4.971,2.215 -7.225,8.028 -5.012,13.029 l 17.988,40.468011 -27.642,46.772 -27.281,-47.11 18.322,-40.295011 c 0.601,-1.322 0.887,-2.715 0.887,-4.085 0,-3.748 -2.145,-7.329 -5.786,-8.981 -4.96,-2.26 -10.81,-0.064 -13.063,4.896 l -12.507,27.5 -16.851,-29.095 c -2.729,-4.716 -8.771,-6.319 -13.487,-3.593 -4.715998,2.741 -6.326998,8.756 -3.593,13.483 l 16.851,29.099 -30.090002,-2.835 c -5.429,-0.511 -10.235,3.469 -10.746,8.898001 -0.556,5.44401 3.466,10.23901 8.895,10.74601 l 44.083002,4.153 27.102,46.798 -54.177,0 -25.693002,-36.06 c -3.162,-4.438 -9.319,-5.467 -13.757,-2.313 -4.438,3.173 -5.474,9.331 -2.313,13.765 l 17.527,24.608 -33.615,0 c -5.448,0 -9.868,4.423 -9.868,9.868 0,5.452 4.419,9.867 9.868,9.867 l 33.615,0 -17.527,24.615 c -3.161,4.416 -2.125,10.586 2.313,13.758 4.438,3.162 10.596,2.125 13.757,-2.313 l 25.693002,-36.061 53.914,0 -27.478,46.506 -44.117002,3.777 c -5.437,0.457 -9.537,5.242 -8.985,10.67 0.455,5.43 5.238,9.455 10.667,8.982 l 30.113002,-2.576 -17.109998,28.956 c -2.76,4.68 -1.216,10.738 3.476998,13.51 4.689,2.779 10.738,1.224 13.509,-3.477 l 17.103,-28.946 12.274,27.618 c 2.219,4.982 8.054,7.222 13.028,5.008 3.676,-1.629 5.857,-5.242 5.857,-9.023 0,-1.332 -0.267,-2.699 -0.849,-4.006 l -17.988,-40.459 27.642,-46.776 27.281,47.106 -18.318,40.303 c -2.26,4.947 -0.068,10.816 4.893,13.066 4.963,2.252 10.816,0.063 13.066,-4.896 l 12.51,-27.508 16.852,29.104 c 2.729,4.714 8.771,6.318 13.486,3.589 3.162,-1.832 4.918,-5.14 4.918,-8.542 0,-1.689 -0.424,-3.383 -1.328,-4.941 l -16.852,-29.098 30.09,2.834 c 5.43,0.516 10.24,-3.473 10.746,-8.902 0.037,-0.307 0.045,-0.623 0.045,-0.938 0,-5.025 -3.826,-9.324 -8.935,-9.805 l -44.088,-4.148 -27.102,-46.806 54.18,0 25.689,36.06 c 3.162,4.438 9.32,5.475 13.762,2.313 4.445,-3.168 5.486,-9.342 2.313,-13.756 l -17.529,-24.616 33.619,0 c 5.443,-0.003 9.867,-4.418 9.867,-9.871 z"
     id="path11" />
  <path
     style="fill:none;fill-rule:evenodd;stroke:#ffffff;stroke-width:30;stroke-linecap:round;stroke-linejoin:miter;stroke-miterlimit:4;stroke-dasharray:none;stroke-opacity:1"
     d="m 313.42105,277.23232 c 0,0 34.8098,11.46583 34.8098,64.2244 0,52.75857 -47.21703,48.30291 -47.21703,105.88894 0,51.43912 46.38488,67.25412 46.38488,67.25412"
     id="path4184"
     inkscape:connector-curvature="0"
     sodipodi:nodetypes="czsc" />
  <path
     style="fill:none;fill-rule:evenodd;stroke:#ffffff;stroke-width:30;stroke-linecap:round;stroke-linejoin:miter;stroke-miterlimit:4;stroke-dasharray:none;stroke-opacity:1"
     d="m 404.33373,277.23232 c 0,0 34.8098,11.46583 34.8098,64.2244 0,52.75857 -47.21703,48.30291 -47.21703,105.88894 0,51.43912 46.38488,67.25412 46.38488,67.25412"
     id="path4184-4"
     inkscape:connector-curvature="0"
     sodipodi:nodetypes="czsc" />
  <path
     style="fill:none;fill-rule:evenodd;stroke:#ffffff;stroke-width:30;stroke-linecap:round;stroke-linejoin:miter;stroke-miterlimit:4;stroke-dasharray:none;stroke-opacity:1"
     d="m 495.24645,277.23232 c 0,0 34.8098,11.46583 34.8098,64.2244 0,52.75857 -47.21703,48.30291 -47.21703,105.88894 0,51.43912 46.38488,67.25412 46.38488,67.25412"
     id="path4184-42"
     inkscape:connector-curvature="0"
     sodipodi:nodetypes="czsc" />
</svg>

<svg width="580" height="580" viewBox="0 0 580 580" fill="none" xmlns="http://www.w3.org/2000/svg">
<g clip-path="url(#clip0)">
<path d="M66.2751 1.76802C24.9401 1.76802 1.7041 23.139 1.7041 66.804V516.927C1.7041 557.771 22.5991 579.156 63.8961 579.156H515.92C557.227 579.156 578.149 558.841 578.149 516.927V66.804C578.149 24.203 557.227 1.76802 514.628 1.76802C514.624 1.76802 66.1331 1.62502 66.2751 1.76802Z" fill="#111111" stroke="#EEEEEE" stroke-width="3.408"/>
<path d="M312.885 172.046C312.885 166.602 308.461 162.179 303.018 162.179H269.399L286.928 137.571C288.168 135.836 288.76 133.839 288.76 131.857C288.76 128.767 287.319 125.737 284.615 123.807C280.174 120.645 274.015 121.682 270.853 126.12L245.164 162.18H191.252L218.725 115.682L262.842 111.905C267.99 111.469 271.869 107.159 271.869 102.091C271.869 101.805 271.861 101.524 271.83 101.235C271.373 95.8064 266.59 91.7814 261.161 92.2504L231.048 94.8224L248.163 65.8734C249.093 64.2924 249.536 62.5694 249.536 60.8614C249.536 57.4864 247.798 54.2004 244.684 52.3644C239.995 49.5864 233.946 51.1404 231.176 55.8334L214.072 84.7854L201.799 57.1614C199.58 52.1864 193.744 49.9414 188.77 52.1524C183.799 54.3674 181.545 60.1804 183.758 65.1814L201.746 105.649L174.104 152.421L146.823 105.311L165.145 65.0164C165.746 63.6944 166.032 62.3014 166.032 60.9314C166.032 57.1834 163.887 53.6024 160.246 51.9504C155.286 49.6904 149.436 51.8864 147.183 56.8464L134.676 84.3464L117.825 55.2514C115.096 50.5354 109.054 48.9324 104.338 51.6584C99.6219 54.3994 98.0109 60.4144 100.745 65.1414L117.596 94.2404L87.5058 91.4054C82.0768 90.8944 77.2708 94.8744 76.7598 100.303C76.2038 105.747 80.2258 110.542 85.6548 111.049L129.738 115.202L156.84 162H102.663L76.9698 125.94C73.8078 121.502 67.6508 120.473 63.2128 123.627C58.7748 126.8 57.7388 132.958 60.8998 137.392L78.4268 162H44.8118C39.3638 162 34.9438 166.423 34.9438 171.868C34.9438 177.32 39.3628 181.735 44.8118 181.735H78.4268L60.8998 206.35C57.7388 210.766 58.7748 216.936 63.2128 220.108C67.6508 223.27 73.8088 222.233 76.9698 217.795L102.663 181.734H156.577L129.099 228.24L84.9818 232.017C79.5448 232.474 75.4448 237.259 75.9968 242.687C76.4518 248.117 81.2348 252.142 86.6638 251.669L116.777 249.093L99.6669 278.049C96.9069 282.729 98.4509 288.787 103.144 291.559C107.833 294.338 113.882 292.783 116.653 288.082L133.756 259.136L146.03 286.754C148.249 291.736 154.084 293.976 159.058 291.762C162.734 290.133 164.915 286.52 164.915 282.739C164.915 281.407 164.648 280.04 164.066 278.733L146.078 238.274L173.72 191.498L201.001 238.604L182.683 278.907C180.423 283.854 182.615 289.723 187.576 291.973C192.539 294.225 198.392 292.036 200.642 287.077L213.152 259.569L230.004 288.673C232.733 293.387 238.775 294.991 243.49 292.262C246.652 290.43 248.408 287.122 248.408 283.72C248.408 282.031 247.984 280.337 247.08 278.779L230.228 249.681L260.318 252.515C265.748 253.031 270.558 249.042 271.064 243.613C271.101 243.306 271.109 242.99 271.109 242.675C271.109 237.65 267.283 233.351 262.174 232.87L218.086 228.722L190.984 181.916H245.164L270.853 217.976C274.015 222.414 280.173 223.451 284.615 220.289C289.06 217.121 290.101 210.947 286.928 206.533L269.399 181.917H303.018C308.461 181.914 312.885 177.499 312.885 172.046V172.046Z" fill="white"/>
<path d="M313.421 277.232C313.421 277.232 348.231 288.698 348.231 341.457C348.231 394.215 301.014 389.76 301.014 447.346C301.014 498.785 347.399 514.6 347.399 514.6" stroke="white" stroke-width="30" stroke-linecap="round"/>
<path d="M404.334 277.232C404.334 277.232 439.144 288.698 439.144 341.457C439.144 394.215 391.927 389.76 391.927 447.346C391.927 498.785 438.311 514.6 438.311 514.6" stroke="white" stroke-width="30" stroke-linecap="round"/>
<path d="M495.247 277.232C495.247 277.232 530.056 288.698 530.056 341.457C530.056 394.215 482.839 389.76 482.839 447.346C482.839 498.785 529.224 514.6 529.224 514.6" stroke="white" stroke-width="30" stroke-linecap="round"/>
</g>
<defs>
<clipPath id="clip0">
<path d="M0 0H580V580H0V0Z" fill="white"/>
</clipPath>
</defs>
</svg>
